public/background/icebergUnion.svg

<svg width="348" height="935" viewBox="0 0 348 935" fill="none" xmlns="http://www.w3.org/2000/svg">
<path fill-rule="evenodd" clip-rule="evenodd" d="M55.9788 199.226L0.707031 276.689L347.996 277L330.647 236.122L311.372 177.373H281.172L235.553 72.867H206.96L158.77 0L127.286 59.8106L76.2046 113.38L55.9788 199.226ZM2.46091 381.126V277H347.119V323.418V381.126L333.371 482.743L302.997 534.805V618.232L225.306 813.938L173.511 935L127.471 837.147L88.4655 729.257L50.4189 667.785V511.597L2.46091 381.126Z" fill="white"/>
</svg>

<svg xmlns="http://www.w3.org/2000/svg" width="348" height="935" fill="none" xmlns:v="https://vecta.io/nano"><path fill-rule="evenodd" d="M55.979 199.226L.707 276.689l347.289.311-17.349-40.878-19.275-58.749h-30.2L235.553 72.867H206.96L158.77 0l-31.484 59.811-51.081 53.569-20.226 85.846zm-53.518 181.9V277h344.658v46.418 57.708l-13.748 101.617-30.374 52.062v83.427l-77.691 195.706L173.511 935l-46.04-97.853-39.005-107.89-38.047-61.472V511.597L2.461 381.126z" fill="#fff"/></svg>
